!!!COM: Mozart, Wolfgang Amadeus
!!!CDT: 1756/01/27/-1791/12/05/
!!!CNT: German
!!!OTL: Piano Sonata No. 6 in D major
!!!SCT1: K<sup>1</sup> 284
!!!SCT2: K<sup>6</sup> 205b
!!!OMV: Mvmt. 3b
!!!OMD: Variation 1
!!!ODT: 1775///
**kern	**kern	**dynam
*staff2	*staff1	*staff1
*clefF4	*clefG2	*clefG2
*>[A,A,B,B]	*>[A,A,B,B]	*>[A,A,B,B]
*>norep[A,B]	*>norep[A,B]	*>norep[A,B]
*>A	*>A	*>A
*k[f#c#]	*k[f#c#]	*k[f#c#]
*D:	*D:	*D:
*M2/2	*M2/2	*M2/2
*met(c|)	*met(c|)	*met(c|)
*MM120	*MM120	*MM120
=!|:	=!|:	=!|:
2r	(>12aL	p
.	12b	.
.	12g#J	.
.	12aL>	.
.	12b	.
.	12cc#J	.
=1	=1	=1
4D 4F#	12ddL	.
.	12ee	.
.	12cc#J	.
*	*Xtuplet	*
4r	12ddL	.
.	12ee	.
.	12cc#J	.
4F# 4A	12ddL	.
.	12ff#	.
.	12eeJ	.
4r	12ddL	.
.	12ee	.
.	12ff#J	.
=2	=2	=2
4E 4B	12ggL	.
.	12aa	.
.	12ff#J	.
4r	12ggL	.
.	12ee	.
.	12ddJ	.
4A	12cc#L	.
.	12ee	.
.	12dd#J	.
4r	12eeL	.
.	12ff#	.
.	12ggJ)	.
=3	=3	=3
2F# 2d	(12gg#L	.
.	12aa	.
.	12ff#J)	.
.	(12gg#L	.
.	12aa	.
.	12ff#J)	.
2G 2d	(12aa#L	.
.	12bb	.
.	12ggnJ)	.
.	(12aa#L	.
.	12bb	.
.	12ggJ)	.
=4	=4	=4
*^	*	*
(4d	2A	(4ff#	.
4c#)	.	4ee)	.
2ryy	2r	(>12aL	f
.	.	12b	.
.	.	12g#J	.
.	.	12aL>	.
.	.	12b	.
.	.	12cc#J	.
*v	*v	*	*
=5	=5	=5
4r	12ddL	.
.	12ee	.
.	12cc#J	.
*clefG2	*	*
4f# 4a	12ddL)	.
.	(12ddd	.
.	12ccc#J	.
4r	12bbL	.
.	12ccc#	.
.	12aa#J	.
4d 4f#	12bbL)	.
.	(12ccc#	.
.	12aanJ	.
=6	=6	=6
4r	12gg#L	.
.	12aa	.
.	12ff#J	.
*clefF4	*	*
4B 4d	12gg#L)	.
.	(12aa	.
.	12ff#J	.
4r	12eeL	.
.	12ff#	.
.	12dd#J	.
4G# 4B	12eeL)	.
.	(12ff#	.
.	12ddnJ)	.
=7	=7	=7
4A	(12cc#L	.
.	12ee	.
.	12aaJ)	.
4D 4B	(12ee#L	.
.	12ff#	.
.	12ddJ)	.
4E 4c#	(12dd#L	.
.	12een	.
.	12cc#J)	.
4E 4G# 4d	(12cc#L	.
.	12ddn	.
.	12bJ)	.
=8	=8	=8
*^	*	*
(4d	2A	(4b	.
4c#)	.	4a)	.
*v	*v	*	*
=:|!|:	=:|!|:	=:|!|:
*>B	*>B	*>B
2r	(12aaL	p
.	12bb	.
.	12gg#J	.
.	12aaL	.
.	12bb	.
.	12gg#J	.
*clefG2	*	*
=9	=9	=9
*^	*	*
2b	(4d#	12aaL	.
.	.	12ff#	.
.	.	12bbJ	.
.	4e)	12gg#L	.
.	.	12dd#	.
.	.	12eeJ	.
2a	(4c#	12ggnL	.
.	.	12ee	.
.	.	12aaJ	.
.	4dn)	12ff#L	.
.	.	12cc#	.
.	.	12ddnJ)	.
*v	*v	*	*
=10	=10	=10
(8bL	(12ddL	f
.	12ddd	.
8a)	.	.
.	12ccc#J)	.
(8g	(12bL	.
.	12bb	.
8f#J)	.	.
.	12aa#J)	.
(8gL	(12bL	.
.	12bb	.
8f#)	.	.
.	12aanJ)	.
(8e	(12gL	.
.	12gg	.
8dJ)	.	.
.	12ff#J)	.
=11	=11	=11
*^	*	*
(2.a	(4c#	(12ggL	.
.	.	12aa	.
.	.	12ggJ	.
.	4d	12ff#L	.
.	.	12gg	.
.	.	12ff#J	.
.	4c#	12eeL	.
.	.	12ff#	.
.	.	12eeJ	.
4g#)	4B)	12ddL	.
.	.	12ee	.
.	.	12ddJ)	.
=12	=12	=12	=12
*	*	*^	*
(4d	[4A	(4ff#	[4a	.
8c#)	8A]	8ee)	8a]	.
8r	8ryy	8ryy	8r	.
2r	2ryy	2ryy	(>12aaL	p
.	.	.	12bb	.
.	.	.	12gg#J	.
.	.	.	12aaL	.
.	.	.	12bb	.
.	.	.	12gg#J	.
*v	*v	*	*	*
*	*v	*v	*
=13	=13	=13
1r	8aa)	.
.	8r	.
.	4r	.
.	(>12aL	f
.	12b	.
.	12g#J	.
.	12aL>	.
.	12b	.
.	12cc#J	.
=14	=14	=14
*^	*	*
4r	2d	12ddL	.
.	.	12ee	.
.	.	12cc#J	.
4f# 4a	.	12ddL	.
.	.	12ee#	.
.	.	12ff#J	.
4r	2B	12ddL	.
.	.	12aa#	.
.	.	12bbJ	.
4d 4f#	.	12ddL	.
.	.	12ccc#	.
.	.	12dddJ)	.
*v	*v	*	*
*clefF4	*	*
=15	=15	=15
*^	*	*
4r	2G	(12ggL	p
.	.	12aan	.
.	.	12ff#J	.
4B 4e	.	12ggL	.
.	.	12dd#	.
.	.	12eenJ	.
4r	2A	12ggL	.
.	.	12b#	.
.	.	12cc#J	.
4c# 4e	.	12ggL	.
.	.	12g#	.
.	.	12aJ)	.
*v	*v	*	*
=16	=16	=16
4d	(12ff#L	f
.	12aa	.
.	12dddJ)	.
4G 4e	(12aa#L	.
.	12bb	.
.	12ggnJ)	.
4A 4d	(12gg#L	.
.	12aan	.
.	12ff#J)	.
4A 4c#	(12ff#L	.
.	12ggn	.
.	12eeJ)	.
=17	=17	=17
*^	*	*
(4c#	2D	4g (4ee	.
4d)	.	4f#\ 4dd\)	.
*v	*v	*	*
==:|!	==:|!	==:|!
*-	*-	*-
!!!RDF**kern: > = above
!!!RDF**kern: < = below
!!!SMS: Alte Mozart-Ausgabe, Band 20, Breitkopf &amp; H&auml;rtel 1877-1883.
!!!ONB: Stich und Druck von Breitkopf &amp; H&auml;rtel in Leipzig
!!!ONB: Ausgegeben 1878
!!!ENC: Craig Stuart Sapp
!!!END: 2009/09/18/
!!!EED: Craig Stuart Sapp
!!!EEF: 2017/02/01/
!!!title: @{OTL}, K 284 (205b), @{OMV}

